icons/op-snooze-24.svg

<svg width="24" height="24" viewBox="0 0 24 24" fill="none" xmlns="http://www.w3.org/2000/svg">
<path d="M6.86665 13.6337V10.4185C6.86852 10.4015 6.86945 10.3844 6.86945 10.3672C6.86923 9.64592 7.03622 8.9344 7.3573 8.28852C7.67838 7.64264 8.14481 7.07998 8.71997 6.64472C9.29513 6.20946 9.96335 5.91346 10.6722 5.77995C11.381 5.64644 12.1111 5.67906 12.8052 5.87525C12.8647 5.89361 12.9272 5.89989 12.9891 5.89373C13.051 5.88756 13.1111 5.86908 13.1657 5.83937C13.2204 5.80965 13.2686 5.7693 13.3074 5.7207C13.3463 5.67209 13.375 5.61621 13.3919 5.55634C13.4089 5.49646 13.4136 5.43381 13.406 5.37206C13.3984 5.31031 13.3784 5.25071 13.3474 5.19677C13.3164 5.14283 13.2749 5.09564 13.2254 5.05797C13.1759 5.0203 13.1193 4.99291 13.0591 4.97742C12.2308 4.74341 11.3597 4.70348 10.5135 4.86073C9.66731 5.01798 8.86874 5.36817 8.17983 5.88411C7.49092 6.40005 6.9302 7.06785 6.54125 7.83564C6.15229 8.60344 5.94555 9.45056 5.93709 10.3112C5.9348 10.3292 5.93355 10.3472 5.93335 10.3653V13.5404L5.07192 15.6086C5.01295 15.7504 4.98988 15.9046 5.00476 16.0574C5.01963 16.2102 5.07199 16.3571 5.1572 16.4848C5.24241 16.6126 5.35782 16.7173 5.49321 16.7898C5.6286 16.8623 5.77978 16.9002 5.93335 16.9003H9.19989C9.19989 17.5191 9.44571 18.1126 9.88328 18.5501C10.3208 18.9877 10.9143 19.2335 11.5331 19.2335C12.1519 19.2335 12.7454 18.9877 13.183 18.5501C13.6206 18.1126 13.8664 17.5191 13.8664 16.9003H17.1329C17.2865 16.9002 17.4377 16.8623 17.5731 16.7898C17.7084 16.7173 17.8239 16.6126 17.9091 16.4848C17.9943 16.3571 18.0466 16.2102 18.0615 16.0574C18.0764 15.9046 18.0533 15.7504 17.9943 15.6086L17.1329 13.5404V12.2319C17.1329 12.1082 17.0837 11.9895 16.9962 11.902C16.9087 11.8145 16.79 11.7653 16.6663 11.7653C16.5425 11.7653 16.4238 11.8145 16.3363 11.902C16.2488 11.9895 16.1996 12.1082 16.1996 12.2319V13.6337C16.1998 13.6953 16.2122 13.7562 16.236 13.8129L17.1329 15.967H5.93335L6.83118 13.8129C6.85469 13.7561 6.86675 13.6952 6.86665 13.6337ZM10.1332 16.9003H12.9331C12.9331 17.2716 12.7856 17.6277 12.523 17.8902C12.2605 18.1527 11.9044 18.3002 11.5331 18.3002C11.1618 18.3002 10.8058 18.1527 10.5432 17.8902C10.2807 17.6277 10.1332 17.2716 10.1332 16.9003ZM15.2663 4.76743H18.5329C18.6116 4.76741 18.689 4.7873 18.758 4.82525C18.8269 4.8632 18.8851 4.91797 18.9272 4.98447C18.9693 5.05098 18.9939 5.12705 18.9987 5.20561C19.0035 5.28417 18.9884 5.36267 18.9547 5.4338L18.9146 5.50193L16.1623 9.43391H18.5329C18.6495 9.4337 18.7619 9.47715 18.8481 9.55571C18.9343 9.63428 18.9879 9.74226 18.9985 9.85839C19.009 9.97453 18.9757 10.0904 18.905 10.1832C18.8344 10.276 18.7316 10.339 18.6169 10.3597L18.5329 10.3672H15.2663C15.1876 10.3672 15.1102 10.3473 15.0412 10.3094C14.9723 10.2714 14.914 10.2167 14.8719 10.1502C14.8298 10.0837 14.8052 10.0076 14.8004 9.92903C14.7956 9.85047 14.8108 9.77197 14.8445 9.70083L14.8837 9.6327L17.6369 5.70072H15.2663C15.1497 5.70094 15.0372 5.65749 14.9511 5.57892C14.8649 5.50036 14.8113 5.39238 14.8007 5.27624C14.7902 5.16011 14.8235 5.04423 14.8941 4.95144C14.9648 4.85865 15.0676 4.79567 15.1823 4.77489L15.2663 4.76743ZM11.0665 8.50061H13.3997C13.482 8.50049 13.5628 8.52211 13.634 8.56328C13.7052 8.60445 13.7642 8.66371 13.8052 8.73505C13.8461 8.80639 13.8675 8.88728 13.8671 8.96952C13.8667 9.05177 13.8445 9.13245 13.8029 9.20339L13.7581 9.26592L12.0651 11.3005H13.3997C13.5163 11.3003 13.6288 11.3437 13.715 11.4223C13.8012 11.5009 13.8548 11.6089 13.8653 11.725C13.8759 11.8411 13.8425 11.957 13.7719 12.0498C13.7013 12.1426 13.5985 12.2056 13.4837 12.2263L13.3997 12.2338H11.0665C10.9842 12.2339 10.9034 12.2123 10.8322 12.1711C10.761 12.13 10.702 12.0707 10.661 11.9994C10.6201 11.928 10.5988 11.8471 10.5992 11.7649C10.5996 11.6826 10.6217 11.602 10.6633 11.531L10.7081 11.4685L12.4039 9.43391H11.0674C10.9508 9.43413 10.8383 9.39067 10.7522 9.31211C10.666 9.23354 10.6124 9.12556 10.6018 9.00943C10.5913 8.89329 10.6246 8.77742 10.6952 8.68463C10.7659 8.59184 10.8687 8.52886 10.9834 8.50808L11.0674 8.50061H11.0665Z" fill="black"/>
</svg>

<svg xmlns="http://www.w3.org/2000/svg" width="24" height="24" viewBox="0 0 24 24"><path d="M6.867 13.634v-3.216c.002-.016.002-.034.002-.051a4.666 4.666 0 0 1 5.936-4.492.46.46 0 0 0 .502-.154.472.472 0 0 0 .099-.349.471.471 0 0 0-.347-.395 5.587 5.587 0 0 0-2.545-.116 5.592 5.592 0 0 0-3.973 2.975 5.604 5.604 0 0 0-.604 2.475l-.004.054v3.175l-.861 2.069a.928.928 0 0 0 .085.876.937.937 0 0 0 .776.415H9.2a2.334 2.334 0 0 0 3.983 1.65 2.33 2.33 0 0 0 .683-1.65h3.267a.935.935 0 0 0 .928-.843.928.928 0 0 0-.067-.448l-.861-2.069v-1.308a.468.468 0 0 0-.797-.33.467.467 0 0 0-.136.33v1.402c0 .061.012.122.036.179l.897 2.154h-11.2l.898-2.154a.462.462 0 0 0 .036-.179Zm3.266 3.266h2.8a1.396 1.396 0 0 1-1.4 1.4 1.4 1.4 0 0 1-1.4-1.4Zm5.133-12.133h3.267a.465.465 0 0 1 .422.667l-.04.068-2.753 3.932h2.371a.466.466 0 0 1 .084.926l-.084.007h-3.267a.468.468 0 0 1-.466-.438.47.47 0 0 1 .045-.228l.039-.068 2.753-3.932h-2.371a.47.47 0 0 1-.465-.425.463.463 0 0 1 .381-.501l.084-.008Zm-4.2 3.734H13.4a.458.458 0 0 1 .405.234.47.47 0 0 1-.002.468l-.045.063-1.693 2.034H13.4a.47.47 0 0 1 .465.425.468.468 0 0 1-.381.501l-.084.008h-2.334a.47.47 0 0 1-.467-.469.48.48 0 0 1 .064-.234l.045-.062 1.696-2.035h-1.337a.466.466 0 0 1-.084-.926l.084-.007h-.001Z"/></svg>
